logos/huggy.svg

<?xml version="1.0" encoding="UTF-8"?>
<svg width="512px" height="72px" viewBox="0 0 512 72" version="1.1" xmlns="http://www.w3.org/2000/svg" xmlns:xlink="http://www.w3.org/1999/xlink" preserveAspectRatio="xMidYMid">
    <title>Huggy</title>
    <defs>
        <linearGradient x1="-1.73686579e-06%" y1="-228.72613%" x2="100.215939%" y2="-228.72613%" id="Huggy-linearGradient-1">
            <stop stop-color="#FF0069" offset="0%"></stop>
            <stop stop-color="#4707FF" offset="100%"></stop>
        </linearGradient>
    </defs>
    <g>
				<path d="M7.09827329,0 L35.6127075,0 C39.5548116,0 42.7108624,3.15101965 42.7108624,7.08969064 C42.7108624,11.0284504 39.5548116,14.1794701 35.6127075,14.1794701 L7.09827329,14.1794701 C3.15608046,14.1794701 0,11.0284504 0,7.08969064 C0,3.15101965 3.15608046,0 7.09827329,0 Z M135.098155,42.6709087 C139.017471,42.6709087 142.190687,39.4965087 142.190687,35.5810405 C142.190687,31.6655723 139.017471,28.4913202 135.098155,28.4913202 C131.179135,28.4913202 128,31.6655723 128,35.5810405 C128,39.4965087 131.179135,42.6709087 135.098155,42.6709087 Z M21.2947903,42.6709087 C25.2138691,42.6709087 28.3872925,39.4968046 28.3872925,35.5810405 C28.3872925,31.6655723 25.2138691,28.491409 21.2947903,28.491409 C17.3757114,28.491409 14.1965466,31.6655723 14.1965466,35.5810405 C14.1965466,39.4968046 17.3757114,42.6709087 21.2947903,42.6709087 Z M49.8093133,42.6709087 L78.3235699,42.6709087 C82.2659699,42.6709087 85.4220208,39.519889 85.4220208,35.5810405 C85.4220208,31.6424879 82.2659699,28.491409 78.3235699,28.491409 L49.8093133,28.491409 C45.8669133,28.491409 42.7108624,31.6424879 42.7108624,35.5810405 C42.7108624,39.519889 45.8669133,42.6709087 49.8093133,42.6709087 Z M113.803394,35.5810405 C113.803394,39.4968046 110.630178,42.6709087 106.710862,42.6709087 C102.791843,42.6709087 99.6127075,39.4968046 99.6127075,35.5810405 C99.6127075,31.6655723 102.791843,28.491409 106.710862,28.491409 C110.630178,28.491409 113.803394,31.6655723 113.803394,35.5810405 Z M56.9018451,63.9393295 C56.9018451,67.8550936 53.7283329,71.0291977 49.8093133,71.0291977 C45.8902936,71.0291977 42.7108624,67.8550936 42.7108624,63.9393295 C42.7108624,60.0238613 45.8902936,56.8497572 49.8093133,56.8497572 C53.7283329,56.8497572 56.9018451,60.0238613 56.9018451,63.9393295 Z M106.710862,56.8497572 L78.1966058,56.8497572 C74.2542058,56.8497572 71.0981549,60.0007769 71.0981549,63.9393295 C71.0981549,67.878178 74.2542058,71.0291977 78.1966058,71.0291977 L106.710862,71.0291977 C110.653262,71.0291977 113.809313,67.878178 113.809313,63.9393295 C113.809313,60.0007769 110.653262,56.8497572 106.710862,56.8497572 Z M64,14.1796476 L92.5145526,14.1796476 C96.4566566,14.1796476 99.6127075,11.028628 99.6127075,7.08986821 C99.6127075,3.15119723 96.4566566,0.000180635968 92.5145526,0.000180635968 L64,0.000180635968 C60.057896,0.000180635968 56.9018451,3.15119723 56.9018451,7.08986821 C56.9018451,11.028628 60.057896,14.1796476 64,14.1796476 Z M120.901845,0 L149.416102,0 C153.358502,0 156.514553,3.15101965 156.514553,7.08969064 C156.514553,11.0284504 153.358502,14.1794701 149.416102,14.1794701 L120.901845,14.1794701 C116.959445,14.1794701 113.803394,11.0284504 113.803394,7.08969064 C113.803394,3.15101965 116.959445,0 120.901845,0 Z" fill="url(#Huggy-linearGradient-1)"></path>
				<path d="M419.877882,6.04041606 C426.18584,6.04041606 431.836782,7.48462021 436.699302,10.5043163 C441.693225,13.3927362 445.110012,17.7253512 447.08136,23.2395616 L436.699302,26.9157216 C433.282516,20.3511713 427.631575,16.9375815 419.746479,16.9375815 C414.62127,16.9375815 410.415945,18.7756615 406.867696,22.3205364 C403.319447,25.9966964 401.611024,30.4605965 401.611024,35.712148 C401.611024,41.0952509 403.45088,45.5591214 406.999129,49.235163 C410.678781,52.9115006 415.146943,54.6182659 420.403496,54.6182659 C424.740402,54.6182659 428.419995,53.4365225 431.442571,51.0733318 C434.465147,48.710141 436.567898,45.5591214 437.487723,41.4891653 L417.512472,41.4891653 L417.512472,30.9857665 L448.789605,30.9857665 C448.921008,32.9551316 449.052412,34.6618969 449.052412,35.8435514 C449.052412,44.377378 446.292643,51.3358428 440.904509,56.9814566 C435.516671,62.6270705 428.551399,65.3841757 420.140689,65.3841757 C411.598724,65.3841757 404.502167,62.4956671 398.719852,56.8500532 C392.937496,51.2047353 390.046319,44.1148671 390.046319,35.712148 C390.046319,27.4408916 392.937496,20.3511713 398.719852,14.7056462 C404.502167,8.92882423 411.598694,6.04041606 419.877882,6.04041606 Z M264.674375,7.3514912 L264.674375,38.7299884 C264.674375,43.4566659 265.857154,47.264111 268.354057,50.1523237 C270.850989,53.0408324 274.136401,54.4850867 278.210323,54.4850867 C282.021409,54.4850867 285.175417,53.0408324 287.540976,50.1523237 C289.906534,47.264111 291.089165,43.4566659 291.089165,38.7299884 L291.089165,7.3514912 L302.653854,7.3514912 L302.653854,38.7299884 L302.522451,38.7299884 C302.522451,46.7387931 300.288296,53.1722358 295.820282,58.0300208 C291.351972,62.8878058 285.438224,65.382104 278.07892,65.382104 C270.588153,65.382104 264.542972,62.8878058 259.943406,58.0300208 C255.343805,53.1722358 253.109724,46.7387931 253.109724,38.7299884 L253.109724,7.3514912 L264.674375,7.3514912 Z M364.025785,9.58372254 C369.019709,12.4721128 372.567898,16.5421577 374.67065,22.0563681 L364.419995,25.8638132 C360.871806,19.2992629 355.089461,16.1482728 347.204454,16.2795579 C342.079186,16.410843 337.873831,18.248923 334.457015,21.925083 C331.04017,25.601243 329.331748,30.0651431 329.463151,35.4481572 C329.594584,40.8309642 331.43441,45.2948347 335.114092,48.8397688 C338.793774,52.3847029 343.261906,54.0914682 348.650099,53.9600647 C352.98671,53.8289572 356.534899,52.6472139 359.557771,50.2840231 C362.580347,47.9208324 364.551399,44.6384092 365.33982,40.5684532 L345.627435,41.0934751 L345.364598,30.5903131 L376.510298,29.933858 C376.773105,31.9032231 376.773105,33.4787034 376.904509,34.791643 C377.035912,43.3255584 374.539246,50.4154266 369.151112,56.0607445 C363.894382,61.7063584 357.060809,64.7259746 348.650099,64.857378 C340.107927,64.9884855 333.011429,62.3627838 326.966248,56.7171699 C321.0525,51.071852 318.029907,44.1133873 317.767074,35.8420717 C317.635657,27.5706081 320.395415,20.4808879 326.046335,14.572763 C331.697247,8.66466775 338.662341,5.77626148 347.073021,5.51367902 C353.38092,5.38238787 359.031861,6.6952997 364.025785,9.58372254 Z M196.206391,7.3514912 L196.206391,30.4587616 L223.409572,30.4587616 L223.409572,7.3514912 L234.974261,7.3514912 L234.974261,64.2006566 L223.409572,64.2006566 L223.409572,40.8306682 L196.206391,40.8306682 L196.206391,64.2006566 L184.641702,64.2006566 L184.641702,7.3514912 L196.206391,7.3514912 Z M467.84441,7.3514912 L483.351588,34.1349216 L498.727362,7.3514912 L512.000592,7.3514912 L489.134021,45.9512601 L489.134021,64.2006566 L477.569243,64.2006566 L477.569243,46.2137711 L455.096955,7.3514912 L467.84441,7.3514912 Z" fill="#050000"></path>
    </g>
</svg>

<svg width="512" height="72" xmlns="http://www.w3.org/2000/svg" preserveAspectRatio="xMidYMid">
	<defs>
		<linearGradient x1="0%" y1="-228.726%" x2="100.216%" y2="-228.726%" id="a">
			<stop stop-color="#FF0069" offset="0%"/>
			<stop stop-color="#4707FF" offset="100%"/>
		</linearGradient>
	</defs>
	<path d="M7.098 0h28.515a7.065 7.065 0 0 1 7.098 7.09 7.065 7.065 0 0 1-7.098 7.09H7.098A7.065 7.065 0 0 1 0 7.09 7.065 7.065 0 0 1 7.098 0Zm128 42.67a7.09 7.09 0 1 0 0-14.179c-3.919 0-7.098 3.175-7.098 7.09 0 3.916 3.18 7.09 7.098 7.09Zm-113.803 0a7.09 7.09 0 1 0 0-14.179c-3.92 0-7.098 3.175-7.098 7.09 0 3.916 3.179 7.09 7.098 7.09Zm28.514 0h28.515a7.065 7.065 0 0 0 7.098-7.089 7.065 7.065 0 0 0-7.098-7.09H49.809a7.065 7.065 0 0 0-7.098 7.09 7.065 7.065 0 0 0 7.098 7.09Zm63.994-7.089a7.09 7.09 0 0 1-7.092 7.09c-3.92 0-7.098-3.174-7.098-7.09 0-3.915 3.179-7.09 7.098-7.09a7.09 7.09 0 0 1 7.092 7.09ZM56.902 63.939a7.09 7.09 0 0 1-7.093 7.09c-3.919 0-7.098-3.174-7.098-7.09 0-3.915 3.18-7.09 7.098-7.09a7.09 7.09 0 0 1 7.093 7.09Zm49.809-7.09H78.197a7.065 7.065 0 0 0-7.099 7.09 7.065 7.065 0 0 0 7.099 7.09h28.514a7.065 7.065 0 0 0 7.098-7.09 7.065 7.065 0 0 0-7.098-7.09ZM64 14.18h28.515a7.065 7.065 0 0 0 7.098-7.09A7.065 7.065 0 0 0 92.515 0H64a7.065 7.065 0 0 0-7.098 7.09A7.065 7.065 0 0 0 64 14.18ZM120.902 0h28.514a7.065 7.065 0 0 1 7.099 7.09 7.065 7.065 0 0 1-7.099 7.09h-28.514a7.065 7.065 0 0 1-7.099-7.09A7.065 7.065 0 0 1 120.902 0Z" fill="url(#a)"/>
	<path d="M419.878 6.04c6.308 0 11.959 1.445 16.821 4.464 4.994 2.889 8.411 7.221 10.382 12.736L436.7 26.916c-3.416-6.565-9.067-9.978-16.953-9.978-5.125 0-9.33 1.838-12.878 5.383-3.549 3.676-5.257 8.14-5.257 13.391 0 5.383 1.84 9.847 5.388 13.523 3.68 3.677 8.148 5.383 13.404 5.383 4.337 0 8.017-1.181 11.04-3.545 3.022-2.363 5.125-5.514 6.045-9.584h-19.976V30.986h31.278c.131 1.97.262 3.676.262 4.858 0 8.533-2.76 15.492-8.147 21.137-5.388 5.646-12.354 8.403-20.764 8.403-8.542 0-15.639-2.888-21.421-8.534-5.783-5.645-8.674-12.735-8.674-21.138 0-8.271 2.891-15.36 8.674-21.006 5.782-5.777 12.879-8.666 21.158-8.666ZM264.674 7.351V38.73c0 4.727 1.183 8.534 3.68 11.422 2.497 2.889 5.782 4.333 9.856 4.333 3.811 0 6.965-1.444 9.331-4.333 2.366-2.888 3.548-6.695 3.548-11.422V7.351h11.565V38.73h-.132c0 8.009-2.234 14.442-6.702 19.3-4.468 4.858-10.382 7.352-17.741 7.352-7.49 0-13.536-2.494-18.136-7.352-4.6-4.858-6.833-11.291-6.833-19.3V7.351h11.564Zm99.352 2.233c4.994 2.888 8.542 6.958 10.645 12.472l-10.251 3.808c-3.548-6.565-9.33-9.716-17.216-9.584-5.125.13-9.33 1.969-12.747 5.645-3.417 3.676-5.125 8.14-4.994 13.523.132 5.383 1.971 9.847 5.651 13.392 3.68 3.545 8.148 5.251 13.536 5.12 4.337-.131 7.885-1.313 10.908-3.676 3.022-2.363 4.993-5.646 5.782-9.716l-19.713.525-.262-10.503 31.145-.656c.263 1.97.263 3.545.395 4.858.13 8.534-2.366 15.623-7.754 21.269-5.257 5.645-12.09 8.665-20.5 8.796-8.543.131-15.64-2.494-21.685-8.14-5.913-5.645-8.936-12.604-9.199-20.875-.131-8.271 2.628-15.361 8.28-21.27 5.65-5.907 12.615-8.796 21.026-9.058 6.308-.132 11.959 1.181 16.953 4.07ZM196.206 7.35V30.46h27.204V7.35h11.564v56.85H223.41V40.83h-27.204V64.2h-11.564V7.35h11.564Zm271.638 0 15.508 26.784L498.727 7.35h13.274l-22.867 38.6v18.25h-11.565V46.214L455.097 7.35h12.747Z" fill="#050000"/>
</svg>
